resources/icons/16px/hurricane.svg

<svg width="16" height="16" viewBox="0 0 16 16" fill="none" xmlns="http://www.w3.org/2000/svg">
    <path fill-rule="evenodd" clip-rule="evenodd" d="M3.5 12C2.64052 12 1 11.5 0 11C1 14.5 4.50623 15 7 15C10.866 15 14 11.866 14 8L13.9943 7.99575C13.9981 7.9085 14 7.82077 14 7.73259C14 6.3254 13.5156 5.03134 12.7044 4.00811C13.6002 4.07445 15.0745 4.53723 16 5C15 1.5 11.4938 1 9 1C6.35352 1 4.05006 2.46864 2.86016 4.63537C2.31417 5.5395 2 6.59936 2 7.73259C2 7.77555 2.00045 7.8184 2.00135 7.86114C2.00045 7.90732 2 7.9536 2 8L2.00605 8.00454C2.07558 9.56314 2.73974 10.9671 3.77715 11.9949C3.68559 11.9983 3.5932 12 3.5 12ZM8 6C6.89543 6 6 6.89543 6 8C6 9.10457 6.89543 10 8 10C9.10457 10 10 9.10457 10 8C10 6.89543 9.10457 6 8 6Z" fill="#000000"/>
</svg>

<svg xmlns="http://www.w3.org/2000/svg" viewBox="0 0 16 16">
  <path d="M3.5 12c-.86 0-2.5-.5-3.5-1 1 3.5 4.506 4 7 4a7 7 0 0 0 7-7l-.006-.004Q14 7.865 14 7.733a5.97 5.97 0 0 0-1.296-3.725c.896.066 2.37.53 3.296.992-1-3.5-4.506-4-7-4a7 7 0 0 0-6.14 3.635 5.97 5.97 0 0 0-.859 3.226L2 8l.006.005a5.98 5.98 0 0 0 1.771 3.99A8 8 0 0 1 3.5 12M8 6a2 2 0 1 0 0 4 2 2 0 0 0 0-4"/>
</svg>
